!!!OTL-incipit: HORCH HORCH WELCHE WIRBELNDE TOENE
!!!ARE: Europa, Mitteleuropa, Deutschland
!!!SCT: Z0207
!!!TXL: @@DE
!!!YEM: Copyright 1995, estate of Helmut Schaffrath.
**kern	**text
*ICvox	*
*M4/4	*
*met(c)	*
*k[b-e-]	*
*B-:	*
!LO:TX:a:t=Mündlich und im Jahre 1807 von den Truppen in Colberg geſungen.	!
{4f	Horch!
=1	=1
4b-	horch!
8b-	wel-
8b-	-che
8cc	wir-
8b-	-beln-
8a	-de
8g	.
=2	=2
4.f	Tö-
8e-	.
4d}	-ne
{4f	durch-
=3	=3
4b-	-be-
8.b-	-ben
16b-	er-
4cc	-ſchüt-
8.cc	-ternd
16cc	die
=4	=4
2.dd}	Luft.
{8ddL	Euch
8ccJ	.
=5	=5
8ccL	gilts,
8b-J	.
8b-	mei-
8b-	-nes
8ccL	Vater-
8b-J	.
8ccL	-lands
8ddJ	.
=6	=6
2b-	Söh-
4f}	-ne,
{8.ffL	euch
16ee-J	.
=7	=7
4dd	gilt
8ccL	es,
8b-J	das
4ee-	Va-
8dd	-ter-
8dd	-land
=8	=8
2cc	ruft.
4r}	.
{4f	Horch!
=9	=9
4cc	horch!
8.ee-L	welch
16ccJ	.
4dd	Trom-
8.ffL	-peten-
16ddJ	.
=10	=10
8cc/L	-Geſchmetter,
8aJ	.
4f	.
4r}	.
{4f	auf,
=11	=11
4dd	auf
4dd	ʒum
4dd	Kampf
8.dd	und
16dd	ʒur
=12	=12
2b-X/	Schlacht,
4r}	.
=|:	=|:
{4f	es
=13	=13
4ee-	ʒür-
8.ee-	-nen
16ee-	die
4cc	mäch-
8.cc	-ti-
16cc	-gen
=14	=14
(4.ff	Göt-
8dd)}	-ter,
{(4.b-/	die
8f)	.
=15	=15
8.dd	rä-
16b-	-chen-
8.ffL	-de
16ddJ	.
8.cc	Ne-
16b-	-me-
8.ccL	-ſis
16ddJ	.
=16	=16
2b-	wacht.
4r}	.
==:|	==:|
!!!AGN: Soldaten - Lied
!!!ONB: ESAC (Essen Associative Code) Database: ZUCCAL
!!!AMT: simple quadruple
!!!AIN: vox
!!!EED: Helmut Schaffrath
!!!EEV: 1.0
!!!GTL: III. Soldaten-, Jaeger-, Schiffer-, Fuhrmanns- und Handwerks-Lieder.
!!!URL-scan: https://www.digitale-sammlungen.de/de/view/bsb11160571?page=384
!!!ENC: Anna Maria Matuszewska
!!!EEV: 2025/01/29
*-	*-
